libs/ui/packages/crypto-icons/src/svg/TONNEL.svg

<svg width="24" height="24" viewBox="0 0 24 24" fill="none" xmlns="http://www.w3.org/2000/svg">
<path fill-rule="evenodd" clip-rule="evenodd" d="M8.57429 4.41375C9.57906 3.72047 10.7976 3.31445 12.1102 3.31445C15.5528 3.31445 18.3435 6.10519 18.3435 9.5477V19.0243C18.3435 19.1624 18.2316 19.2743 18.0935 19.2743C17.9554 19.2743 17.8435 19.1624 17.8435 19.0243V9.5477C17.8435 6.38133 15.2766 3.81445 12.1102 3.81445C10.9023 3.81445 9.78221 4.18777 8.85824 4.82529C8.7446 4.9037 8.58891 4.87514 8.51049 4.7615C8.43208 4.64785 8.46064 4.49216 8.57429 4.41375ZM12.1102 4.86952C9.49102 4.86952 7.35999 7.05828 7.35999 9.68601V13.2033C7.35999 13.3414 7.24806 13.4533 7.10999 13.4533C6.97192 13.4533 6.85999 13.3414 6.85999 13.2033V9.68601C6.85999 6.79073 9.20636 4.36952 12.1102 4.36952C14.4859 4.36952 16.4854 6.0118 17.1364 8.16381C17.1763 8.29596 17.1016 8.43551 16.9695 8.47549C16.8373 8.51547 16.6978 8.44074 16.6578 8.30859C16.0657 6.3515 14.2493 4.86952 12.1102 4.86952ZM12.1102 5.87711C10.0264 5.87711 8.33706 7.56643 8.33706 9.65032V10.0253C8.33706 10.1634 8.22513 10.2753 8.08706 10.2753C7.94899 10.2753 7.83706 10.1634 7.83706 10.0253V9.65032C7.83706 7.29029 9.75023 5.37711 12.1102 5.37711C12.9611 5.37711 13.7547 5.6261 14.421 6.05523C14.5371 6.12999 14.5706 6.2847 14.4958 6.40078C14.421 6.51686 14.2663 6.55035 14.1502 6.47559C13.5622 6.09689 12.8622 5.87711 12.1102 5.87711ZM7.65414 5.54704C7.76059 5.63497 7.77561 5.79255 7.68767 5.899C6.86875 6.8904 6.37695 8.1613 6.37695 9.5477V19.0243C6.37695 19.1624 6.26502 19.2743 6.12695 19.2743C5.98888 19.2743 5.87695 19.1624 5.87695 19.0243V9.5477C5.87695 8.04085 6.41197 6.65827 7.30218 5.58057C7.39012 5.47412 7.54769 5.45911 7.65414 5.54704ZM12.1102 6.87112C11.3601 6.87112 10.68 7.16862 10.1805 7.65263C10.0814 7.74871 9.9231 7.74622 9.82702 7.64707C9.73094 7.54791 9.73342 7.38964 9.83258 7.29356C10.4216 6.72282 11.225 6.37112 12.1102 6.37112C13.918 6.37112 15.3834 7.83655 15.3834 9.64425V10.2981C15.3834 10.4362 15.2714 10.5481 15.1334 10.5481C14.9953 10.5481 14.8834 10.4362 14.8834 10.2981V9.64425C14.8834 8.11269 13.6418 6.87112 12.1102 6.87112ZM15.2898 7.17239C15.4037 7.09433 15.5593 7.12338 15.6373 7.23727C16.108 7.92399 16.3834 8.75535 16.3834 9.65025V19.0243C16.3834 19.1624 16.2715 19.2743 16.1334 19.2743C15.9954 19.2743 15.8834 19.1624 15.8834 19.0243V9.65025C15.8834 8.85944 15.6404 8.1261 15.2249 7.51994C15.1469 7.40605 15.1759 7.25045 15.2898 7.17239ZM12.1102 7.82058C11.1119 7.82058 10.3026 8.6299 10.3026 9.6281V19.0243C10.3026 19.1624 10.1907 19.2743 10.0526 19.2743C9.91456 19.2743 9.80263 19.1624 9.80263 19.0243V9.6281C9.80263 8.35375 10.8358 7.32058 12.1102 7.32058C13.3847 7.32058 14.4178 8.35375 14.4178 9.6281V12.0412C14.4178 12.1793 14.3059 12.2912 14.1678 12.2912C14.0297 12.2912 13.9178 12.1793 13.9178 12.0412V9.6281C13.9178 8.62989 13.1085 7.82058 12.1102 7.82058ZM9.50521 8.0891C9.62914 8.14996 9.68027 8.29977 9.61941 8.4237C9.43869 8.79169 9.33707 9.20575 9.33707 9.64425V19.0243C9.33707 19.1624 9.22514 19.2743 9.08707 19.2743C8.94899 19.2743 8.83707 19.1624 8.83707 19.0243V9.64425C8.83707 9.12765 8.95696 8.63835 9.17061 8.2033C9.23147 8.07937 9.38128 8.02824 9.50521 8.0891ZM17.1105 9.43601C17.2485 9.43601 17.3605 9.54794 17.3605 9.68601V19.0243C17.3605 19.1624 17.2485 19.2743 17.1105 19.2743C16.9724 19.2743 16.8605 19.1624 16.8605 19.0243V9.68601C16.8605 9.54794 16.9724 9.43601 17.1105 9.43601ZM8.08706 10.9256C8.22513 10.9256 8.33706 11.0375 8.33706 11.1756V11.7329C8.33706 11.8709 8.22513 11.9829 8.08706 11.9829C7.94899 11.9829 7.83706 11.8709 7.83706 11.7329V11.1756C7.83706 11.0375 7.94899 10.9256 8.08706 10.9256ZM15.1334 11.2339C15.2714 11.2339 15.3834 11.3458 15.3834 11.4839V11.7329C15.3834 11.8709 15.2714 11.9829 15.1334 11.9829C14.9953 11.9829 14.8834 11.8709 14.8834 11.7329V11.4839C14.8834 11.3458 14.9953 11.2339 15.1334 11.2339ZM8.08706 12.5738C8.22513 12.5738 8.33706 12.6857 8.33706 12.8238V19.0243C8.33706 19.1624 8.22513 19.2743 8.08706 19.2743C7.94899 19.2743 7.83706 19.1624 7.83706 19.0243V12.8238C7.83706 12.6857 7.94899 12.5738 8.08706 12.5738ZM15.1334 12.5738C15.2714 12.5738 15.3834 12.6857 15.3834 12.8238V19.0243C15.3834 19.1624 15.2714 19.2743 15.1334 19.2743C14.9953 19.2743 14.8834 19.1624 14.8834 19.0243V12.8238C14.8834 12.6857 14.9953 12.5738 15.1334 12.5738ZM14.1678 13.1074C14.3059 13.1074 14.4178 13.2194 14.4178 13.3574V19.0243C14.4178 19.1624 14.3059 19.2743 14.1678 19.2743C14.0297 19.2743 13.9178 19.1624 13.9178 19.0243V13.3574C13.9178 13.2194 14.0297 13.1074 14.1678 13.1074ZM7.10999 14.2458C7.24806 14.2458 7.35999 14.3577 7.35999 14.4958V19.0243C7.35999 19.1624 7.24806 19.2743 7.10999 19.2743C6.97192 19.2743 6.85999 19.1624 6.85999 19.0243V14.4958C6.85999 14.3577 6.97192 14.2458 7.10999 14.2458Z" fill="white"/>
<path d="M12.1108 8.52539C11.4501 8.52539 10.9146 9.06097 10.9146 9.72167V11.6356H13.307V9.72167C13.307 9.06097 12.7715 8.52539 12.1108 8.52539Z" fill="white"/>
<path d="M12.7714 15.4321C12.7714 15.6767 12.6385 15.8904 12.4409 16.0047L12.729 17.2585H11.4918L11.7533 15.9886C11.5704 15.871 11.4492 15.6657 11.4492 15.4321C11.4492 15.067 11.7452 14.771 12.1103 14.771C12.4754 14.771 12.7714 15.067 12.7714 15.4321Z" fill="white"/>

</svg>

<svg xmlns="http://www.w3.org/2000/svg" width="24" height="24" viewBox="0 0 24 24" fill="none"><path fill="#fff" fill-rule="evenodd" d="M8.574 4.414a6.233 6.233 0 0 1 9.77 5.134v9.476a.25.25 0 1 1-.5 0V9.548a5.733 5.733 0 0 0-8.986-4.723.25.25 0 0 1-.284-.411m3.536.456c-2.619 0-4.75 2.188-4.75 4.816v3.517a.25.25 0 1 1-.5 0V9.686c0-2.895 2.346-5.316 5.25-5.316 2.376 0 4.375 1.642 5.026 3.794a.25.25 0 0 1-.478.145c-.592-1.957-2.409-3.44-4.548-3.44m0 1.007A3.773 3.773 0 0 0 8.337 9.65v.375a.25.25 0 1 1-.5 0V9.65a4.273 4.273 0 0 1 6.584-3.595.25.25 0 1 1-.27.42 3.75 3.75 0 0 0-2.04-.598m-4.456-.33a.25.25 0 0 1 .034.352 5.7 5.7 0 0 0-1.311 3.649v9.476a.25.25 0 1 1-.5 0V9.548c0-1.507.535-2.89 1.425-3.967a.25.25 0 0 1 .352-.034m4.456 1.324c-.75 0-1.43.298-1.93.782a.25.25 0 1 1-.347-.36 3.273 3.273 0 0 1 5.55 2.35v.655a.25.25 0 0 1-.5 0v-.654a2.773 2.773 0 0 0-2.773-2.773m3.18.301a.25.25 0 0 1 .347.065c.471.687.746 1.518.746 2.413v9.374a.25.25 0 1 1-.5 0V9.65c0-.79-.243-1.524-.658-2.13a.25.25 0 0 1 .065-.348m-3.18.649c-.998 0-1.807.809-1.807 1.807v9.396a.25.25 0 1 1-.5 0V9.628a2.308 2.308 0 0 1 4.615 0v2.413a.25.25 0 1 1-.5 0V9.628c0-.998-.81-1.807-1.808-1.807m-2.605.268a.25.25 0 0 1 .114.335 2.76 2.76 0 0 0-.282 1.22v9.38a.25.25 0 1 1-.5 0v-9.38c0-.516.12-1.006.334-1.44a.25.25 0 0 1 .334-.115m7.605 1.347a.25.25 0 0 1 .25.25v9.338a.25.25 0 0 1-.5 0V9.686a.25.25 0 0 1 .25-.25m-9.023 1.49a.25.25 0 0 1 .25.25v.557a.25.25 0 0 1-.5 0v-.557a.25.25 0 0 1 .25-.25m7.046.308a.25.25 0 0 1 .25.25v.249a.25.25 0 0 1-.5 0v-.25a.25.25 0 0 1 .25-.25m-7.046 1.34a.25.25 0 0 1 .25.25v6.2a.25.25 0 1 1-.5 0v-6.2a.25.25 0 0 1 .25-.25m7.046 0a.25.25 0 0 1 .25.25v6.2a.25.25 0 0 1-.5 0v-6.2a.25.25 0 0 1 .25-.25m-.965.533a.25.25 0 0 1 .25.25v5.667a.25.25 0 1 1-.5 0v-5.667a.25.25 0 0 1 .25-.25m-7.059 1.14a.25.25 0 0 1 .25.25v4.528a.25.25 0 1 1-.5 0v-4.528a.25.25 0 0 1 .25-.25" clip-rule="evenodd"/><path fill="#fff" d="M12.11 8.525c-.66 0-1.195.536-1.195 1.197v1.914h2.392V9.722c0-.661-.536-1.197-1.196-1.197m.66 6.907a.66.66 0 0 1-.33.573l.288 1.254h-1.237l.261-1.27a.66.66 0 1 1 1.018-.557"/></svg>
